X: 24
T: Queen of the Fair
M: 6/8
L: 1/8
R: Jig
K: D
E|FEF D2 A,|DFA dAF|GFG FGA|BGE EAG|
FEF D2 A,|DFA dAF|GFG EAG|FDD D2 :|
g|fdf ece|dAG FEF|DFA dAF|GFG E2 g|
fdf ece|dAG FED|EFG BAG|FDD D2 :|
B|Add fdd|add fdd|Bef g3|fdf ecA|
|1 Add fdd|add fdd|EFG BAG|FDD D2 :|
|2 afa geg|fdf e3|EFG BAG|FDD D2 ||
